X: 11012
T: QUADRILLE
%R: jig
B: W. Hamilton "Universal Tune-Book" Vol. 1 Glasgow 1844 p.101 #2
S: http://imslp.org/wiki/Hamilton's_Universal_Tune-Book_(Various)
Z: 2016 John Chambers <jc:trillian.mit.edu>
M: 6/8
L: 1/8
K: G
% - - - - - - - - - - - - - - - - - - - - - - - - -
B/c/ |\
d2g B2c | e2d B2B | d2c A2A | e2d B2B/c/ |\
d2g B2c | e2d B2B | d2c A2F | G3 z2 H|]
B |\
d2c A2A | e2d B2B | d2c A2A | e2d B2B/c/ |\
d2g B2c | e2d B2B | d2c A2F | G3 "^D.C."z2 |]
(d/e//f//) |\
g2f age | d2B GBd | dcB BAG | FGA D2z d/e//f// |\
g2f age | d2B GBd | c2A G2F | G3 "^D.C."z2 |]
% - - - - - - - - - - - - - - - - - - - - - - - - -

%%sep 1 1 500
%%sep 1 1 500

